X:31
M:9/8
L:1/8
Q:3/8=50
K:F
(3f/e/d/|dAA A>BA/G/ FDD|cAA A>GA/c/ d>fe/d/|cAF A2 G/E/ FGA|
cAF A2 G/E/ FGA|A2 G/F/ GAc d2||
c/B/|AAA f>gf edc|d2 c/A/ f>ef/g/ a2 c/B/|
d2 c/A/ f>ef/g/ a2 c/B/|

